X:1
T:Title
%%score { ( 1 4 ) | ( 2 3 ) }
L:1/8
M:4/4
K:D
V:1 treble nm="Grand Piano"
V:4 treble 
V:2 bass 
V:3 bass 
V:1
 z2[Q:1/4=100] [FA]>[EG] [DF][EG][FA][Fd] |[M:3/4] .[Fd]2 [A,FA]2 z2 | E>F GB [FA][EG] | [DF]4 z2 | %4
 [FA]>[EG] [DF][EG] [FA][Fd] | .[Fd]2 [A,FA]2 z2 | E>F GB [FA][EG] | F4 z2 | G>G GG G>G | %9
 F2 z2 z2 | A>A AA e>c | .[DFd]2 [FA]2 z2 | [FA]>[FA] AA fe | e4 [Fd]2 |] %14
V:2
 z2 [D,D]>[D,D] [D,A,][D,A,][D,D][D,D] |[M:3/4] z A D,2 z2 | %2
 [A,C]>[A,D] [A,E][A,G][K:bass] [A,,A,][A,,A,] | [D,A,]4 z2 | [D,D]>[D,D] [D,A,][D,A,] [D,D][D,D] | %5
 z A D,2 z2 | [A,C]>[A,D] [A,E][A,G][K:bass] [A,,A,][A,,A,] | [D,A,D]4 z2 | %8
 [A,C]>[A,C] [A,C][A,C] [A,CE]>[A,CE] | .[D,D]2 [D,A,D]2 z2 | %10
 [A,CG]>[A,CG] [A,CG][A,CG] [A,CG]>[A,EG] | z A [D,D]2 z2 | %12
 [D,D]>[D,D][K:treble] [F,DF][A,DF] [DA][A,CG] | [A,CG]4[K:bass] [D,D]2 |] %14
V:3
 x8 |[M:3/4] [D,A,]2 z2 z2 | x4[K:bass] x2 | x6 | x6 | [D,A,]2 z2 z2 | x4[K:bass] x2 | x6 | x6 | %9
 x6 | x6 | D,2 z2 z2 | x2[K:treble] x4 | x4[K:bass] x2 |] %14
V:4
 x8 |[M:3/4] x6 | x6 | x6 | x6 | x6 | x6 | x6 | x6 | z A, F2 z2 | x6 | x6 | x6 | x6 |] %14

